X:750
T:Flowers of Edinburgh
M:C
K:G
GE|D2 DE G2 GA|BA Bd cB AG|FG EF DE FG|AF dF E2 GE|
D2 DE G2 GA|BA Bd ef ge| dc BA GF GA|B2 G2 G2:|
|: (3GBd| g2 gf gb ag|f2 fe fa gf| ed ef gf ed|B2 e2 eg fe|
dB GB d2 Bd|ed ef g2 fe|dc BA GF GA|B2 G2 G2:|
